img/experiments-16.svg

<svg xmlns="http://www.w3.org/2000/svg" viewBox="0 0 16 16"><path d="M13.9 9.8v-.2c-.3-1.4-1.2-2.6-2.4-3.4-.3-.2-.5-.6-.6-.9V3c0-.6-.4-1-1-1H6.1c-.6 0-1 .4-1 1v2.2c0 .4-.2.8-.6 1-1.2.8-2 2-2.3 3.3v.2c-.1.3-.1.7-.1 1a5.4 5.4 0 0 0 3.2 5.2c.1.1.3.1.4.1h4.6c.2 0 .3 0 .4-.1 2-.9 3.2-2.9 3.3-5.1 0-.3 0-.7-.1-1zm-8.3-2c.9-.6 1.4-1.5 1.5-2.6V4H9v1.2c0 1 .6 2 1.4 2.6.8.5 1.3 1.3 1.5 2.2v.2c-1.2.8-2.8.5-3.7-.6-.9-.8-2.4-1.1-3.6-.6.2-.5.6-.8 1-1.2z" fill="#424c55"/></svg>

<?xml version="1.0" encoding="utf-8"?>
<!-- Generator: Adobe Illustrator 21.1.0, SVG Export Plug-In . SVG Version: 6.00 Build 0)  -->
<svg version="1.1" id="Layer_1" xmlns="http://www.w3.org/2000/svg" xmlns:xlink="http://www.w3.org/1999/xlink" x="0px" y="0px"
	 viewBox="0 0 16 16" style="enable-background:new 0 0 16 16;" xml:space="preserve">
<style type="text/css">
	.st0{fill:#424C55;}
</style>
<path class="st0" d="M13.9,9.8c0-0.1,0-0.1,0-0.2V9.6c-0.3-1.4-1.2-2.6-2.4-3.4C11.2,6,11,5.6,10.9,5.3V3c0-0.6-0.4-1-1-1H6.1
	c-0.6,0-1,0.4-1,1v2.2c0,0.4-0.2,0.8-0.6,1c-1.2,0.8-2,2-2.3,3.3v0.1c0,0,0,0.1,0,0.1c-0.1,0.3-0.1,0.7-0.1,1C2,13,3.3,15,5.3,15.9
	C5.4,16,5.6,16,5.7,16h4.6c0.2,0,0.3,0,0.4-0.1c2-0.9,3.2-2.9,3.3-5.1C14,10.5,14,10.1,13.9,9.8z M5.6,7.8C6.5,7.2,7,6.3,7.1,5.2V4
	h1.9v1.2c0,1,0.6,2,1.4,2.6c0.8,0.5,1.3,1.3,1.5,2.2v0.2c-1.2,0.8-2.8,0.5-3.7-0.6C7.3,8.8,5.8,8.5,4.6,9C4.8,8.5,5.2,8.2,5.6,7.8
	L5.6,7.8z"/>
</svg>
